dist/svg/icons/mirror.svg

<svg height="16" width="16" xmlns="http://www.w3.org/2000/svg" viewBox="0 0 16 16">
  <path d="M15.5 4.7L8.5 0 1.5 4.7c-0.3 0.19-0.5 0.45-0.5 0.8v10.5l7.5-4 7.5 4V5.5c0-0.34-0.2-0.61-0.5-0.8z m-0.5 9.8L9 11.25v-1.25h-1v1.25L2 14.5V5.5L8 1.5v4.5h1V1.5l6 4v9zM6 7h5V5l3 3-3 3V9H6v2L3 8l3-3v2z" />
</svg>

<svg xmlns="http://www.w3.org/2000/svg" width="16" height="16" viewBox="0 0 16 16"><path d="M15.5 4.7L8.5 0l-7 4.7c-.3.19-.5.45-.5.8V16l7.5-4 7.5 4V5.5c0-.34-.2-.61-.5-.8zm-.5 9.8l-6-3.25V10H8v1.25L2 14.5v-9l6-4V6h1V1.5l6 4v9zM6 7h5V5l3 3-3 3V9H6v2L3 8l3-3v2z"/></svg>
